packages/core/src/svgs/grs.svg

<svg width="24" height="24" viewBox="0 0 24 24" fill="none" xmlns="http://www.w3.org/2000/svg">
<g clip-path="url(#clip0_31_11096)">
<path d="M0 0H24V24H0V0Z" fill="#377E96"/>
<path d="M15.2764 18.0259C14.2712 18.5733 13.1445 18.8593 12 18.8574C8.21268 18.8574 5.14282 15.7875 5.14282 12.0002C5.14282 8.21292 8.21268 5.14307 12 5.14307C15.7873 5.14307 18.8571 8.21292 18.8571 12.0002C18.8571 14.2896 17.7351 16.3168 16.0114 17.5622C15.7581 16.6254 14.85 16.2246 13.95 16.1659C12.8395 16.0999 11.73 16.0562 10.62 15.9731H10.6071C10.14 15.8745 9.99854 15.5874 10.2428 15.1802C10.3585 14.9831 10.5385 14.8202 10.7014 14.6488C10.74 14.6145 10.8428 14.6274 10.9114 14.6445C11.6828 14.8288 12.45 14.8374 13.2 14.5716C14.1171 14.2459 14.7471 13.6245 14.9785 12.6602C15.1517 11.9479 14.9991 11.3561 14.6785 10.7145H15.7243C15.7671 10.7102 15.8314 10.6845 15.8443 10.6588L16.1914 9.46307C16.1914 9.46307 15.7603 9.86892 15.45 9.85735C15.1401 9.86035 14.0785 9.85735 14.0785 9.85735L14.9571 8.86307C15.5665 8.20435 16.386 7.13849 15.6814 6.26592C15.3981 5.98264 14.9743 5.84164 14.9743 5.84164C14.9743 5.84164 14.6314 5.82021 14.4643 5.84164C13.875 5.9265 13.5008 6.42492 13.4271 6.99021C13.4014 7.09349 13.5278 7.12307 13.5814 7.03735C13.7297 6.82992 13.7923 6.62078 14.0314 6.48107C14.2021 6.38303 14.4007 6.34489 14.5957 6.37269C14.7906 6.40049 14.9706 6.49264 15.1071 6.63449C15.687 7.26278 15.147 8.26135 14.67 8.77735C14.5645 8.90164 13.9744 9.72192 13.7914 9.61735C13.2557 9.31307 12.6814 9.17592 12.0643 9.16307C10.8634 9.08678 9.60125 9.73135 9.07368 10.8349C8.69525 11.6265 8.71368 12.6178 9.15639 13.3794C9.41697 13.8276 9.82497 14.1594 10.2737 14.4062C9.95782 14.7148 9.62354 15.0075 9.32568 15.3345C9.11139 15.5788 8.96139 15.8702 8.93997 16.2131C8.90139 16.6999 9.38054 16.9596 9.71139 17.2245L9.45082 17.4996C9.27768 17.6839 9.10411 17.8674 8.92711 18.0474C8.90139 18.0645 8.84139 18.0731 8.79854 18.0645C9.01154 18.1879 9.51382 18.3936 9.50911 18.3911C9.68782 18.0199 9.92182 17.6989 10.1828 17.3788C10.2128 17.3359 10.2943 17.3188 10.3543 17.3188C11.5933 17.4002 12.8361 17.4551 14.0743 17.5459C14.607 17.5622 15.2764 18.0259 15.2764 18.0259Z" fill="white"/>
<path d="M12.9904 13.9329C12.594 14.3057 11.9618 14.4004 11.4668 14.1823C10.7691 13.875 10.4653 13.02 10.3885 12.3171C10.2514 11.3991 10.3294 10.0989 11.34 9.71142C12.5815 9.22671 13.3663 10.614 13.4571 11.6529C13.5334 12.3831 13.578 13.38 12.9904 13.9329Z" fill="white"/>
</g>
<defs>
<clipPath id="clip0_31_11096">
<rect width="24" height="24" fill="white"/>
</clipPath>
</defs>
</svg>

<svg xmlns="http://www.w3.org/2000/svg" width="24" height="24" fill="none" viewBox="0 0 24 24"><g clip-path="url(#a)"><path fill="#377E96" d="M0 0h24v24H0z"/><path fill="#fff" d="M15.276 18.026a6.857 6.857 0 1 1 .735-.464c-.253-.937-1.161-1.337-2.061-1.396-1.11-.066-2.22-.11-3.33-.193h-.013c-.467-.099-.608-.386-.364-.793.115-.197.296-.36.458-.531.039-.034.142-.022.21-.004.772.184 1.539.192 2.289-.073.917-.326 1.547-.947 1.779-1.912.173-.712.02-1.304-.3-1.946h1.045c.043-.004.107-.03.12-.055l.347-1.196s-.43.406-.741.394c-.31.003-1.371 0-1.371 0l.878-.994c.61-.659 1.429-1.725.724-2.597-.283-.283-.707-.424-.707-.424s-.343-.022-.51 0c-.589.085-.963.583-1.037 1.148-.026.103.1.133.154.047.149-.207.211-.416.45-.556a.88.88 0 0 1 1.076.153c.58.629.04 1.627-.437 2.143-.105.125-.696.945-.879.84a3.6 3.6 0 0 0-1.727-.454c-1.2-.076-2.463.568-2.99 1.672-.379.791-.36 1.783.082 2.544.261.449.669.78 1.118 1.027-.316.309-.65.601-.948.928a1.46 1.46 0 0 0-.386.88c-.039.486.44.746.771 1.01l-.26.276a33 33 0 0 1-.524.547.2.2 0 0 1-.128.017c.213.124.715.33.71.327.179-.371.413-.692.674-1.012.03-.043.111-.06.171-.06 1.24.081 2.482.136 3.72.227.533.016 1.202.48 1.202.48"/><path fill="#fff" d="M12.99 13.933c-.396.373-1.028.467-1.523.25-.698-.308-1.002-1.163-1.078-1.866-.138-.918-.06-2.218.951-2.606 1.242-.484 2.026.903 2.117 1.942.076.73.121 1.727-.467 2.28"/></g><defs><clipPath id="a"><path fill="#fff" d="M0 0h24v24H0z"/></clipPath></defs></svg>
